public/message.svg

<svg width="572" height="276" viewBox="0 0 572 276" fill="none" xmlns="http://www.w3.org/2000/svg">
<path opacity="0.4" d="M480.939 -66.6757C472.877 -90.4588 444.743 -100.839 418.418 -89.7431L35.51 71.6535C9.18508 82.7496 -5.75798 111.287 2.30324 135.07L90.2437 394.522C98.305 418.305 126.439 428.686 152.764 417.59L535.672 256.193C561.997 245.097 576.94 216.559 568.879 192.776L480.939 -66.6757ZM433.075 -46.5011L278.263 142.302L50.1668 114.896L433.075 -46.5011ZM521.016 212.951L138.107 374.348L64.8235 158.138L292.92 185.544L447.732 -3.25907L521.016 212.951Z" fill="white"/>
</svg>

<svg width="572" height="276" fill="none" xmlns="http://www.w3.org/2000/svg"><path opacity=".4" d="M480.939-66.676c-8.062-23.783-36.196-34.163-62.521-23.067L35.51 71.653C9.185 82.75-5.758 111.287 2.303 135.07l87.94 259.452c8.062 23.783 36.196 34.164 62.521 23.068l382.908-161.397c26.325-11.096 41.268-39.634 33.207-63.417l-87.94-259.452ZM433.075-46.5 278.263 142.302 50.167 114.896 433.075-46.501Zm87.941 259.452L138.107 374.348l-73.284-216.21 228.097 27.406L447.732-3.259l73.284 216.21Z" fill="#fff"/></svg>
